svgs/regular/mug-tea-saucer.svg

<svg xmlns="http://www.w3.org/2000/svg" viewBox="0 0 640 512"><!--! Font Awesome Pro 6.6.0 by @fontawesome - https://fontawesome.com License - https://fontawesome.com/license (Commercial License) Copyright 2024 Fonticons, Inc. --><path d="M144 288c0 26.5 21.5 48 48 48l192 0c26.5 0 48-21.5 48-48l0-208L248 80l0 10.7c0 8.5 3.4 16.6 9.4 22.6l21.3 21.3c6 6 9.4 14.1 9.4 22.6l0 66.7c0 17.7-14.3 32-32 32l-48 0c-17.7 0-32-14.3-32-32l0-66.7c0-8.5 3.4-16.6 9.4-22.6l21.3-21.3c6-6 9.4-14.1 9.4-22.6L216 80l-72 0 0 208zM96 64c0-17.7 14.3-32 32-32l320 0 64 0c70.7 0 128 57.3 128 128s-57.3 128-128 128l-32 0c0 53-43 96-96 96l-192 0c-53 0-96-43-96-96L96 64zM480 240l32 0c44.2 0 80-35.8 80-80s-35.8-80-80-80l-32 0 0 160zM24 432l528 0c13.3 0 24 10.7 24 24s-10.7 24-24 24L24 480c-13.3 0-24-10.7-24-24s10.7-24 24-24z"/></svg>

<svg xmlns="http://www.w3.org/2000/svg" viewBox="0 0 640 512"><!--! Font Awesome Pro 6.4.2 by @fontawesome - https://fontawesome.com License - https://fontawesome.com/license (Commercial License) Copyright 2023 Fonticons, Inc. --><path d="M144 288c0 26.5 21.5 48 48 48H384c26.5 0 48-21.5 48-48V80H248V90.7c0 8.5 3.4 16.6 9.4 22.6l21.3 21.3c6 6 9.4 14.1 9.4 22.6V224c0 17.7-14.3 32-32 32H208c-17.7 0-32-14.3-32-32V157.3c0-8.5 3.4-16.6 9.4-22.6l21.3-21.3c6-6 9.4-14.1 9.4-22.6V80H144V288zM96 64c0-17.7 14.3-32 32-32H448h64c70.7 0 128 57.3 128 128s-57.3 128-128 128H480c0 53-43 96-96 96H192c-53 0-96-43-96-96V64zM480 240h32c44.2 0 80-35.8 80-80s-35.8-80-80-80H480V240zM24 432H552c13.3 0 24 10.7 24 24s-10.7 24-24 24H24c-13.3 0-24-10.7-24-24s10.7-24 24-24z"/></svg>
